!!!OTL: 207. Plyeskun
!!!Genre:	Plyeskun
!!!Mode:	Altered Dorian
!!!Listening/dance:	dance
!!!:	*g:
!!!One_Mode:	no
**kern
*staff1
*I"P1
=1-
*clefG2
*k[b-]
*g:dor
*M2/4
*>A
!LO:TX:a:i:t=G-raised-fourth
8.b-\L
16dd\Jk
(16dd\LL
16cc#\)
(16cc#\
16b-\JJ)
=2
(16dd\LL
16cc#\)
(16cc#\
16b-\JJ)
(16b-/LL
16a/)
(16a/
16g/JJ)
=3
(8.b-\L
16dd\Jk)
(16dd\LL
16cc#\)
(16cc#\
16b-\JJ)
*>A1
=4
(16b-/LL
16a/)
(16a/
16g/JJ)
8.b-/L
16g/Jk
*>A2
=5:|!
(16b-/LL
16a/)
(16a/
16g/JJ)
4g/
=6|=|!|:
*>B
*k[b-e-]
*>bM
*g:
!LO:TX:a:i:t=G-minor
16cc\LL
16dd\
16ee-\
16dd\JJ
16ff\LL
16ee-\
16dd\
16ee-\JJ
=7
8cc\L
8cc\J
4cc\
=8
16b-\LL
16cc\
16dd\
16ee-\JJ
16dd\LL
16cc\
16b-\
16a\JJ
=9
8b-\L
8b-\J
4b-\
=10
16g/LL
16a/
16b-/
16a/JJ
16cc\LL
16b-\
16a\
16b-\JJ
=11
8g/L
8g/J
4g/
*>eM
*g:dor
*k[b-e]
=12:|!|:
*>C
!LO:TX:a:i:t=G-raised-fourth
4b-\
16cc#\LL
16dd\
16cc#\
16b-\JJ
=13
16cc#\LL
16dd\
16cc#\
16b-\JJ
(16b-/LL
16a/)
(16a/
16g/JJ)
=14
4b-\
16cc#\LL
16dd\
16cc#\
16b-\JJ
*>C1
=15
(16b-/LL
16a/)
(16a/
16g/JJ)
(8b-/L
8g/J)
*>C2
=16:|!
(16b-/LL
16a/)
(16a/
16g/JJ)
4g/
=17||
*-
